!!!COM: Bach, Johann Sebastian
!!!OPR: Joh. Seb. Bachs vierstimmige Choralges‰nge
!!!XEN: Four-part Chorales
!!!OTL: 50. Ein' feste Burg ist unser Gott
!!!SCT: BWV 303
!!!SCA: Thematisch-systematisches Verzeichnis der musikalischen Werke Johann Sebastian Bach: Bach-Werke-Verzeichnis (Schmieder)
!!!YOR: Bach Gesellschaft Edition xxxix
!!!ENC: Steven Rasmussen
!!!CDT: 1685/3//-1750/7/28/
!!!OCY: Deutschland
!!!YEC: Copyright (c) 1994, 2000 Center for Computer Assisted Research in the Humanities
!!!YEM: Rights to all derivative editions reserved
!!!YEN: United States of America
**kern	**silbe	**kern	**kern	**kern
*I:[SOPRANO]	*I:[SOPRANO]	*I:[ALTO]	*I:[TENORE]	*I:[BASSO]
*>[A,A,B]	*	*>[A,A,B]	*>[A,A,B]	*>[A,A,B]
*>A	*	*>A	*>A	*>A
*clefG2	*	*clefG2	*clefGv2	*clefF4
*k[f#c#]	*	*k[f#c#]	*k[f#c#]	*k[f#c#]
*D:	*	*D:	*D:	*D:
*M4/4	*	*M4/4	*M4/4	*M4/4
4dd	Ein'Er	4a	8f#L	8dL
.	.	.	8eJ	8c#J
=1	=1	=1	=1	=1
4dd	fe-hilft	8aL	4d	4B
.	.	8gJ	.	.
4dd	-steuns	8f#L	8cnL	8AL
.	.	8gJ	8BJ	8GJ
8aL	Burgfrei	8aL	4d	4F#
8bJ	.	8f#J	.	.
4cc#	istaus	8gL	4e	4E
.	.	8aJ	.	.
=2	=2	=2	=2	=2
8ddL	un-al-	8f#L	4A	4D
8cc#J	.	8eJ	.	.
4b	-ser-ler	8dL	8AL	4E
.	.	8eJ	8G#J	.
4a;	Gott,Not,	4c#;	4A;	4AA;
4dd	ein'die	4f#	8F#L	4BB
.	.	.	8G#J	.
=3	=3	=3	=3	=3
4cc#	gu-uns	8eL	4A	8C#L
.	.	8f#J	.	8DJ
4b	-tejetzt	4g	8eL	4E
.	.	.	8dJ	.
4a	Wehrhat	8f#L	4c#	4F#
.	.	8eJ	.	.
8bL	undbe-	4d	8BL	8GL
8aJ	.	.	8c#J	8AJ
=4	=4	=4	=4	=4
(8gL	Waf--trof-	4d	4d	8BL
8f#J	.	.	.	8G
4e)	.	4c#	8AL	8A
.	.	.	8GJ	8AAJ
4d;	-fen.-fen.	4A;	4F#;	4D;
=:|!	=:|!	=:|!	=:|!	=:|!
*>B	*	*>B	*>B	*>B
(4d	Der	4d	8F#L	8DL
.	.	.	8G#J	8EJ
=5	=5	=5	=5	=5
4a)	.	8c#L	8AL	4F#
.	.	8f#J	8dJ	.
4b	alt'	8eL	8c#L	4G#
.	.	8dJ	8BJ	.
4a	b√∂-	8c#L	8eL	8AL
.	.	8dJ	8f#J	8DJ
4g#	-se	4B	8eL	4E
.	.	.	8dJ	.
=6	=6	=6	=6	=6
4a;	Feind,	4A;	4c#;	4AA;
4d	mit	4d	8F#L	4BB
.	.	.	8GJ	.
4a	Ernst	4d	4A	4F#
8b	er's	8g	8e	8E
8cc#	jetzt	8g	8e	8AA
=7	=7	=7	=7	=7
4dd	meint,	4f#	4d	4D
4cc#	gross	4f#	4A	4F#
8dd	Macht	16f#LL	8B	8BB
.	.	16g#JJ	.	.
8cc#	und	8a	8e	8C#
4b	viel	8aL	8f#L	8DL
.	.	8g#J	8eJ	8EJ
=8	=8	=8	=8	=8
4a;	List	4a;	4c#;	4AA;
4b	sein	4g	8BL	4E
.	.	.	8c#J	.
4b	grau-	4g	4d	8BBL
.	.	.	.	8C#J
4a	-sam	4f#	8dL	4D
.	.	.	8cnJ	.
=9	=9	=9	=9	=9
8bL	R√º-	4f#	4B	4D#
8aJ	.	.	.	.
4g	-stung	4e	4B	4E
4f#;	ist,	4d#;	4B;	4BB;
4dd	auf	8f#L	4B	4BB
.	.	8g#J	.	.
=10	=10	=10	=10	=10
4cc#	Erd'n	4a	4e	8C#L
.	.	.	.	8DJ
4b	ist	4g	4e	8EL
.	.	.	.	8DJ
4a	nicht	4g	4e	8C#L
.	.	.	.	8AAJ
8bL	sein's	8f#L	8dL	8DL
8aJ	.	8eJ	8AJ	8C#J
=11	=11	=11	=11	=11
(8gL	Glei-	4d	4B	8BBL
8f#J	.	.	.	8GGJ
4e)	.	4c#	8EL	4AA
.	.	.	8AJ	.
2d;	-chen.	2A;	2F#;	2D;
==|!	==|!	==|!	==|!	==|!
*-	*-	*-	*-	*-
!!!RWG: Key is interpreted using the Humdrum key tool.
!!!END: 1994/05/18
!!!EMD: Converted from MuseData to Humdrum Dec 19, 2000, by Andreas Kornstaedt using muse2kern.
!!!EED: Craig Stuart Sapp
!!!EEV: 2024/03/31
!!!ONB: Some non-unicode characters
